tools/download-figma-icons/icons/outlined-medium/healthy.svg

<svg width="24" height="24" viewBox="0 0 24 24" fill="none" xmlns="http://www.w3.org/2000/svg">
<path fill-rule="evenodd" clip-rule="evenodd" d="M16.2414 20.9997C15.0481 20.9997 14.3296 20.705 14.3229 20.7027L14.0364 20.5805L13.7446 20.6982C13.7371 20.7012 12.9804 20.9997 11.7782 20.9997C9.60092 20.9997 6.7322 18.7085 5.84046 14.3773L6.9587 13.5651L7.74919 16.091C7.84519 16.3978 8.12719 16.6093 8.44818 16.6168H8.46468C8.78043 16.6168 9.06318 16.4195 9.16968 16.121L10.3067 12.9666L11.0267 18.8405C11.0694 19.193 11.3529 19.4667 11.7062 19.4967C11.7279 19.499 11.7497 19.4997 11.7714 19.4997C12.0991 19.4997 12.3924 19.2853 12.4884 18.9665L13.6501 15.1168L13.9996 16.1405C14.1009 16.4413 14.3814 16.6438 14.6971 16.649H14.7091C15.0211 16.649 15.3009 16.4555 15.4111 16.163L15.9631 14.696H18.7501C19.1641 14.696 19.5001 14.3601 19.5001 13.9461C19.5001 13.5313 19.1641 13.1961 18.7501 13.1961H15.4441C15.1329 13.1961 14.8554 13.3873 14.7436 13.6761L14.3169 12.4228C14.2119 12.1146 13.8969 11.9106 13.5939 11.9151C13.2676 11.9211 12.9826 12.1363 12.8889 12.4483L12.0819 15.122L11.4129 9.6591C11.3709 9.3141 11.0979 9.04336 10.7522 9.00436C10.4169 8.97061 10.0809 9.1686 9.96317 9.4956L8.51418 13.5156L8.07769 12.1198C8.00644 11.8896 7.82719 11.7073 7.59844 11.6323C7.37045 11.5558 7.1162 11.5956 6.9212 11.7373L5.59971 12.6981C5.57196 12.3336 5.55771 11.9578 5.55771 11.5716C5.55771 8.20561 7.53694 7.49987 9.19593 7.49987C11.1279 7.49987 13.7289 8.50936 13.7551 8.51911L14.0311 8.62786L14.3056 8.51836C14.3311 8.50861 16.8946 7.49987 18.8236 7.49987C20.1961 7.49987 22.5 8.02862 22.5 11.5716C22.5 17.642 18.7988 20.9997 16.2414 20.9997ZM10.0711 3.04192C11.2059 3.20617 11.9896 3.84216 12.4854 4.42941C11.1009 4.22016 10.4124 3.58492 10.0711 3.04192ZM18.8236 5.9999C17.3663 5.9999 15.6961 6.4619 14.6821 6.79489C14.9738 4.77741 16.3561 2.69168 16.3726 2.66843C16.6028 2.32494 16.5113 1.85919 16.1678 1.62819C15.8258 1.3972 15.3586 1.48645 15.1283 1.83069C15.0841 1.89519 14.5171 2.75018 13.9974 3.93517C13.1146 2.68118 11.4316 1.2922 8.9289 1.52769C8.72865 1.54719 8.54491 1.64469 8.41816 1.79994C8.29141 1.95519 8.23216 2.15544 8.25466 2.35494C8.25766 2.39094 8.70166 5.89265 13.3044 5.9909C13.2496 6.23615 13.2091 6.48514 13.1784 6.73414C12.1419 6.4094 10.5654 5.9999 9.1959 5.9999C5.97843 5.9999 4.0577 8.08263 4.0577 11.5716C4.0577 12.1311 4.0967 12.6688 4.15295 13.1961H0.750237C0.335491 13.1961 0.000244138 13.5313 0.000244138 13.9461C0.000244138 14.3601 0.335491 14.6961 0.750237 14.6961H4.3892C5.41294 19.466 8.68216 22.4997 11.7781 22.4997C12.8304 22.4997 13.6209 22.31 14.0229 22.187C14.4158 22.3122 15.1808 22.4997 16.2413 22.4997C19.9883 22.4997 24 18.1085 24 11.5716C24 6.4019 20.0378 5.9999 18.8236 5.9999Z" fill="black"/>
</svg>

<svg xmlns="http://www.w3.org/2000/svg" width="24" height="24" fill="none" viewBox="0 0 24 24"><path fill="currentColor" fill-rule="evenodd" d="M16.241 21c-1.193 0-1.911-.295-1.918-.297l-.287-.122-.291.117c-.008.003-.765.302-1.967.302-2.177 0-5.046-2.291-5.938-6.623l1.119-.812.79 2.526a.75.75 0 0 0 .7.526h.016a.75.75 0 0 0 .705-.496l1.137-3.154.72 5.873a.748.748 0 0 0 1.461.127l1.162-3.85.35 1.023c.1.301.381.504.697.509h.012a.75.75 0 0 0 .702-.486l.552-1.467h2.787a.75.75 0 0 0 0-1.5h-3.306a.75.75 0 0 0-.7.48l-.427-1.253a.77.77 0 0 0-.723-.508.75.75 0 0 0-.705.533l-.807 2.674-.67-5.463a.75.75 0 0 0-.66-.655.76.76 0 0 0-.789.492l-1.449 4.02-.436-1.396a.75.75 0 0 0-1.156-.383l-1.322.961q-.042-.547-.042-1.126c0-3.366 1.979-4.072 3.638-4.072 1.932 0 4.533 1.01 4.56 1.02l.275.108.275-.11c.025-.01 2.589-1.018 4.518-1.018 1.372 0 3.676.529 3.676 4.072 0 6.07-3.701 9.428-6.259 9.428m-6.17-17.958c1.135.164 1.919.8 2.414 1.387-1.384-.209-2.073-.844-2.414-1.387M18.824 6c-1.458 0-3.128.462-4.142.795.292-2.018 1.674-4.103 1.69-4.127a.75.75 0 0 0-1.244-.837c-.044.064-.61.92-1.13 2.104-.883-1.254-2.566-2.643-5.07-2.407a.746.746 0 0 0-.674.827c.004.036.448 3.538 5.05 3.636a8 8 0 0 0-.126.743C12.142 6.41 10.565 6 9.196 6c-3.218 0-5.138 2.083-5.138 5.572 0 .56.039 1.097.095 1.624H.75a.75.75 0 1 0 0 1.5h3.64c1.023 4.77 4.292 7.804 7.388 7.804a7.8 7.8 0 0 0 2.245-.313c.393.125 1.158.313 2.218.313C19.988 22.5 24 18.108 24 11.572 24 6.402 20.038 6 18.824 6" clip-rule="evenodd"/></svg>
